; generated by Slic3r 0.9.8-dev on 2013-02-17 at 13:34:06

; layer_height = 0.2
; perimeters = 3
; top_solid_layers = 5
; bottom_solid_layers = 3
; fill_density = 0.5
; perimeter_speed = 45
; infill_speed = 50
; travel_speed = 130
; scale = 1
; nozzle_diameter = 0.35
; filament_diameter = 2.9
; extrusion_multiplier = 1
; perimeters extrusion width = 0.49mm
; infill extrusion width = 0.49mm
; first layer extrusion width = 0.22mm

M190 S110 ; wait for bed temperature to be reached
M104 S260 ; set temperature
G28 ; home all axes
M109 S260 ; wait for temperature to be reached
G90 ; use absolute coordinates
G21 ; set units to millimeters
G92 E0
M82 ; use absolute distances for extrusion
G1 F3600.000 E-2.00000
G92 E0
G1 Z0.200 F7800.000
G1 X127.990 Y126.130
G1 F3600.000 E2.00000
G1 X54.000 Y126.130 F810.000 E2.55538
G1 X53.280 Y126.090 E2.56079
G1 X52.230 Y125.930 E2.56877
G1 X51.940 Y125.860 E2.57100
G1 X51.050 Y125.580 E2.57801
G1 X50.780 Y125.470 E2.58020
G1 X49.870 Y125.000 E2.58788
G1 X49.610 Y124.840 E2.59018
G1 X48.800 Y124.250 E2.59770
G1 X48.580 Y124.060 E2.59988
G1 X47.930 Y123.410 E2.60678
G1 X47.740 Y123.190 E2.60896
G1 X47.150 Y122.380 E2.61648
G1 X46.990 Y122.120 E2.61878
G1 X46.520 Y121.210 E2.62646
G1 X46.410 Y120.940 E2.62865
G1 X46.130 Y120.050 E2.63565
G1 X46.060 Y119.760 E2.63789
G1 X45.900 Y118.710 E2.64587
G1 X45.880 Y118.410 E2.64812
G1 X45.860 Y117.990 E2.65128
G1 X45.860 Y72.000 E2.99649
G1 X45.900 Y71.280 E3.00190
G1 X46.060 Y70.230 E3.00987
G1 X46.130 Y69.940 E3.01211
G1 X46.410 Y69.050 E3.01912
G1 X46.520 Y68.780 E3.02130
G1 X46.990 Y67.870 E3.02899
G1 X47.150 Y67.610 E3.03128
G1 X47.740 Y66.800 E3.03881
G1 X47.930 Y66.580 E3.04099
G1 X48.580 Y65.930 E3.04789
G1 X48.800 Y65.740 E3.05007
G1 X49.610 Y65.150 E3.05759
G1 X49.870 Y64.990 E3.05988
G1 X50.780 Y64.520 E3.06757
G1 X51.050 Y64.410 E3.06976
G1 X51.940 Y64.130 E3.07676
G1 X52.230 Y64.060 E3.07900
G1 X53.280 Y63.900 E3.08697
G1 X54.000 Y63.860 E3.09239
G1 X127.990 Y63.860 E3.64777
G1 X128.510 Y63.880 E3.65167
G1 X129.020 Y63.950 E3.65554
G1 X129.530 Y64.050 E3.65944
G1 X130.030 Y64.200 E3.66336
G1 X130.510 Y64.390 E3.66723
G1 X131.200 Y64.750 E3.67307
G1 X131.630 Y65.030 E3.67692
G1 X132.040 Y65.350 E3.68083
G1 X132.420 Y65.700 E3.68471
G1 X132.770 Y66.090 E3.68864
G1 X133.090 Y66.500 E3.69254
G1 X133.500 Y67.160 E3.69838
G1 X143.300 Y87.420 E3.86731
G1 X143.580 Y88.050 E3.87248
G1 X143.860 Y88.940 E3.87949
G1 X143.930 Y89.230 E3.88172
G1 X144.090 Y90.280 E3.88970
G1 X144.130 Y91.000 E3.89511
G1 X144.130 Y98.990 E3.95508
G1 X144.110 Y99.410 E3.95824
G1 X144.090 Y99.710 E3.96050
G1 X143.930 Y100.760 E3.96847
G1 X143.860 Y101.050 E3.97071
G1 X143.580 Y101.940 E3.97771
G1 X143.470 Y102.210 E3.97990
G1 X133.500 Y122.830 E4.15182
G1 X133.370 Y123.060 E4.15380
G1 X133.090 Y123.490 E4.15766
G1 X132.930 Y123.700 E4.15964
G1 X132.420 Y124.290 E4.16549
G1 X131.840 Y124.800 E4.17129
G1 X131.630 Y124.960 E4.17327
G1 X131.200 Y125.240 E4.17712
G1 X130.510 Y125.600 E4.18296
G1 X129.780 Y125.870 E4.18881
G1 X129.530 Y125.940 E4.19075
G1 X128.770 Y126.080 E4.19655
G1 X128.510 Y126.110 E4.19852
G1 X128.027 Y126.129 E4.20215
G1 X127.990 Y126.130 E4.20243
G1 F3600.000 E2.20243
G92 E0
G1 X60.602 Y77.700 F7800.000
G1 F3600.000 E2.00000
G1 X60.287 Y78.105 F540.000 E2.00385
G1 X59.909 Y78.453 E2.00771
G1 X59.479 Y78.733 E2.01156
G1 X59.009 Y78.939 E2.01541
G1 X58.512 Y79.065 E2.01926
G1 X58.025 Y79.106 E2.02293
G1 X56.475 Y79.106 E2.03456
G1 X55.988 Y79.065 E2.03823
G1 X55.491 Y78.939 E2.04208
G1 X55.021 Y78.733 E2.04593
G1 X54.591 Y78.453 E2.04979
G1 X54.213 Y78.105 E2.05364
G1 X53.898 Y77.700 E2.05749
G1 X53.654 Y77.248 E2.06135
G1 X53.487 Y76.763 E2.06520
G1 X53.403 Y76.257 E2.06905
G1 X53.403 Y75.743 E2.07290
G1 X53.487 Y75.237 E2.07676
G1 X53.654 Y74.752 E2.08061
G1 X53.898 Y74.300 E2.08446
G1 X54.213 Y73.895 E2.08832
G1 X54.591 Y73.547 E2.09217
G1 X55.021 Y73.267 E2.09602
G1 X55.491 Y73.061 E2.09987
G1 X55.988 Y72.935 E2.10373
G1 X56.475 Y72.894 E2.10739
G1 X58.025 Y72.894 E2.11903
G1 X58.512 Y72.935 E2.12269
G1 X59.009 Y73.061 E2.12654
G1 X59.479 Y73.267 E2.13040
G1 X59.909 Y73.547 E2.13425
G1 X60.287 Y73.895 E2.13810
G1 X60.602 Y74.300 E2.14195
G1 X60.846 Y74.752 E2.14581
G1 X61.013 Y75.237 E2.14966
G1 X61.097 Y75.743 E2.15351
G1 X61.097 Y76.257 E2.15737
G1 X61.013 Y76.763 E2.16122
G1 X60.846 Y77.248 E2.16507
G1 X60.620 Y77.667 E2.16865
G1 X60.602 Y77.700 E2.16892
G1 X60.394 Y77.564 F7800.000
G1 X60.104 Y77.936 F540.000 E2.17247
G1 X59.756 Y78.256 E2.17601
G1 X59.361 Y78.515 E2.17956
G1 X58.928 Y78.704 E2.18310
G1 X58.471 Y78.820 E2.18665
G1 X58.015 Y78.858 E2.19008
G1 X56.485 Y78.858 E2.20156
G1 X56.029 Y78.820 E2.20499
G1 X55.572 Y78.704 E2.20854
G1 X55.139 Y78.515 E2.21208
G1 X54.744 Y78.256 E2.21563
G1 X54.396 Y77.936 E2.21917
G1 X54.106 Y77.564 E2.22272
G1 X53.882 Y77.148 E2.22626
G1 X53.728 Y76.702 E2.22981
G1 X53.651 Y76.236 E2.23335
G1 X53.651 Y75.764 E2.23689
G1 X53.728 Y75.298 E2.24044
G1 X53.882 Y74.852 E2.24398
G1 X54.106 Y74.436 E2.24753
G1 X54.396 Y74.064 E2.25107
G1 X54.744 Y73.744 E2.25462
G1 X55.139 Y73.485 E2.25816
G1 X55.572 Y73.296 E2.26171
G1 X56.029 Y73.180 E2.26525
G1 X56.485 Y73.142 E2.26868
G1 X58.015 Y73.142 E2.28016
G1 X58.471 Y73.180 E2.28360
G1 X58.928 Y73.296 E2.28714
G1 X59.361 Y73.485 E2.29069
G1 X59.756 Y73.744 E2.29423
G1 X60.104 Y74.064 E2.29778
G1 X60.394 Y74.436 E2.30132
G1 X60.618 Y74.852 E2.30486
G1 X60.772 Y75.298 E2.30841
G1 X60.849 Y75.764 E2.31195
G1 X60.849 Y76.236 E2.31550
G1 X60.772 Y76.702 E2.31904
G1 X60.618 Y77.148 E2.32259
G1 X60.411 Y77.531 E2.32585
G1 X60.394 Y77.564 E2.32613
G1 X60.185 Y77.428 F7800.000
G1 X59.921 Y77.768 F540.000 E2.32937
G1 X59.603 Y78.060 E2.33260
G1 X59.242 Y78.296 E2.33584
G1 X58.848 Y78.469 E2.33908
G1 X58.430 Y78.575 E2.34231
G1 X58.005 Y78.610 E2.34551
G1 X56.495 Y78.610 E2.35684
G1 X56.070 Y78.575 E2.36004
G1 X55.652 Y78.469 E2.36328
G1 X55.258 Y78.296 E2.36652
G1 X54.897 Y78.060 E2.36975
G1 X54.579 Y77.768 E2.37299
G1 X54.315 Y77.428 E2.37622
G1 X54.109 Y77.049 E2.37946
G1 X53.969 Y76.641 E2.38270
G1 X53.899 Y76.216 E2.38593
G1 X53.899 Y75.784 E2.38917
G1 X53.969 Y75.359 E2.39240
G1 X54.109 Y74.951 E2.39564
G1 X54.315 Y74.572 E2.39888
G1 X54.579 Y74.232 E2.40211
G1 X54.897 Y73.940 E2.40535
G1 X55.258 Y73.704 E2.40858
G1 X55.652 Y73.531 E2.41182
G1 X56.070 Y73.425 E2.41506
G1 X56.495 Y73.390 E2.41826
G1 X58.005 Y73.390 E2.42959
G1 X58.430 Y73.425 E2.43279
G1 X58.848 Y73.531 E2.43602
G1 X59.242 Y73.704 E2.43926
G1 X59.603 Y73.940 E2.44250
G1 X59.921 Y74.232 E2.44573
G1 X60.185 Y74.572 E2.44897
G1 X60.391 Y74.951 E2.45220
G1 X60.531 Y75.359 E2.45544
G1 X60.601 Y75.784 E2.45868
G1 X60.601 Y76.216 E2.46191
G1 X60.531 Y76.641 E2.46515
G1 X60.391 Y77.049 E2.46839
G1 X60.203 Y77.395 E2.47134
G1 X60.185 Y77.428 E2.47162
G1 X60.291 Y77.652 F7800.000
G1 F3600.000 E0.47162
G92 E0
G1 X83.398 Y93.300 F7800.000
G1 F3600.000 E2.00000
G1 X83.713 Y92.895 F540.000 E2.00385
G1 X84.091 Y92.547 E2.00771
G1 X84.521 Y92.267 E2.01156
G1 X84.991 Y92.061 E2.01541
G1 X85.488 Y91.935 E2.01926
G1 X85.975 Y91.894 E2.02293
G1 X87.525 Y91.894 E2.03456
G1 X88.012 Y91.935 E2.03823
G1 X88.509 Y92.061 E2.04208
G1 X88.979 Y92.267 E2.04593
G1 X89.409 Y92.547 E2.04979
G1 X89.787 Y92.895 E2.05364
G1 X90.102 Y93.300 E2.05749
G1 X90.346 Y93.752 E2.06134
G1 X90.513 Y94.237 E2.06520
G1 X90.597 Y94.743 E2.06905
G1 X90.597 Y95.257 E2.07290
G1 X90.513 Y95.763 E2.07676
G1 X90.346 Y96.248 E2.08061
G1 X90.102 Y96.700 E2.08446
G1 X89.787 Y97.105 E2.08832
G1 X89.409 Y97.453 E2.09217
G1 X88.979 Y97.733 E2.09602
G1 X88.509 Y97.939 E2.09987
G1 X88.012 Y98.065 E2.10373
G1 X87.525 Y98.106 E2.10739
G1 X85.975 Y98.106 E2.11903
G1 X85.488 Y98.065 E2.12269
G1 X84.991 Y97.939 E2.12654
G1 X84.521 Y97.733 E2.13040
G1 X84.091 Y97.453 E2.13425
G1 X83.713 Y97.105 E2.13810
G1 X83.398 Y96.700 E2.14195
G1 X83.154 Y96.248 E2.14581
G1 X82.987 Y95.763 E2.14966
G1 X82.903 Y95.257 E2.15351
G1 X82.903 Y94.743 E2.15737
G1 X82.987 Y94.237 E2.16122
G1 X83.154 Y93.752 E2.16507
G1 X83.380 Y93.333 E2.16865
G1 X83.398 Y93.300 E2.16892
G1 X83.606 Y93.436 F7800.000
G1 X83.896 Y93.064 F540.000 E2.17247
G1 X84.244 Y92.744 E2.17601
G1 X84.639 Y92.485 E2.17956
G1 X85.072 Y92.296 E2.18310
G1 X85.529 Y92.180 E2.18665
G1 X85.985 Y92.142 E2.19008
G1 X87.515 Y92.142 E2.20156
G1 X87.971 Y92.180 E2.20499
G1 X88.428 Y92.296 E2.20854
G1 X88.861 Y92.485 E2.21208
G1 X89.256 Y92.744 E2.21563
G1 X89.604 Y93.064 E2.21917
G1 X89.894 Y93.436 E2.22272
G1 X90.118 Y93.851 E2.22626
G1 X90.272 Y94.298 E2.22981
G1 X90.349 Y94.764 E2.23335
G1 X90.349 Y95.236 E2.23689
G1 X90.272 Y95.702 E2.24044
G1 X90.118 Y96.148 E2.24398
G1 X89.894 Y96.564 E2.24753
G1 X89.604 Y96.936 E2.25107
G1 X89.256 Y97.256 E2.25462
G1 X88.861 Y97.515 E2.25816
G1 X88.428 Y97.704 E2.26171
G1 X87.971 Y97.820 E2.26525
G1 X87.515 Y97.858 E2.26868
G1 X85.985 Y97.858 E2.28017
G1 X85.529 Y97.820 E2.28360
G1 X85.072 Y97.704 E2.28714
G1 X84.639 Y97.515 E2.29069
G1 X84.244 Y97.256 E2.29423
G1 X83.896 Y96.936 E2.29778
G1 X83.606 Y96.564 E2.30132
G1 X83.382 Y96.148 E2.30486
G1 X83.228 Y95.702 E2.30841
G1 X83.151 Y95.236 E2.31195
G1 X83.151 Y94.764 E2.31550
G1 X83.228 Y94.298 E2.31904
G1 X83.382 Y93.851 E2.32259
G1 X83.589 Y93.469 E2.32585
G1 X83.606 Y93.436 E2.32613
G1 X83.815 Y93.572 F7800.000
G1 X84.079 Y93.232 F540.000 E2.32937
G1 X84.397 Y92.940 E2.33260
G1 X84.758 Y92.704 E2.33584
G1 X85.152 Y92.531 E2.33908
G1 X85.570 Y92.425 E2.34231
G1 X85.995 Y92.390 E2.34551
G1 X87.505 Y92.390 E2.35684
G1 X87.930 Y92.425 E2.36004
G1 X88.348 Y92.531 E2.36328
G1 X88.742 Y92.704 E2.36652
G1 X89.103 Y92.940 E2.36975
G1 X89.421 Y93.232 E2.37299
G1 X89.685 Y93.572 E2.37622
G1 X89.891 Y93.951 E2.37946
G1 X90.031 Y94.359 E2.38270
G1 X90.101 Y94.784 E2.38593
G1 X90.101 Y95.216 E2.38917
G1 X90.031 Y95.641 E2.39240
G1 X89.891 Y96.049 E2.39564
G1 X89.685 Y96.428 E2.39888
G1 X89.421 Y96.768 E2.40211
G1 X89.103 Y97.060 E2.40535
G1 X88.742 Y97.296 E2.40858
G1 X88.348 Y97.469 E2.41182
G1 X87.930 Y97.575 E2.41506
G1 X87.505 Y97.610 E2.41826
G1 X85.995 Y97.610 E2.42959
G1 X85.570 Y97.575 E2.43279
G1 X85.152 Y97.469 E2.43602
G1 X84.758 Y97.296 E2.43926
G1 X84.397 Y97.060 E2.44250
G1 X84.079 Y96.768 E2.44573
G1 X83.815 Y96.428 E2.44897
G1 X83.609 Y96.049 E2.45220
G1 X83.469 Y95.641 E2.45544
G1 X83.399 Y95.216 E2.45868
G1 X83.399 Y94.784 E2.46191
G1 X83.469 Y94.359 E2.46515
G1 X83.609 Y93.951 E2.46839
G1 X83.797 Y93.605 E2.47134
G1 X83.815 Y93.572 E2.47162
G1 X83.709 Y93.348 F7800.000
G1 F3600.000 E0.47162
G92 E0
G1 X60.287 Y111.895 F7800.000
G1 F3600.000 E2.00000
G1 X60.602 Y112.300 F540.000 E2.00385
G1 X60.846 Y112.752 E2.00771
G1 X61.013 Y113.237 E2.01156
G1 X61.097 Y113.743 E2.01541
G1 X61.097 Y114.257 E2.01926
G1 X61.013 Y114.763 E2.02312
G1 X60.846 Y115.248 E2.02697
G1 X60.602 Y115.700 E2.03082
G1 X60.287 Y116.105 E2.03468
G1 X59.909 Y116.453 E2.03853
G1 X59.479 Y116.733 E2.04238
G1 X59.009 Y116.939 E2.04623
G1 X58.512 Y117.065 E2.05009
G1 X58.025 Y117.106 E2.05375
G1 X56.475 Y117.106 E2.06539
G1 X55.988 Y117.065 E2.06905
G1 X55.491 Y116.939 E2.07290
G1 X55.021 Y116.733 E2.07676
G1 X54.591 Y116.453 E2.08061
G1 X54.213 Y116.105 E2.08446
G1 X53.898 Y115.700 E2.08831
G1 X53.654 Y115.248 E2.09217
G1 X53.487 Y114.763 E2.09602
G1 X53.403 Y114.257 E2.09987
G1 X53.403 Y113.743 E2.10373
G1 X53.487 Y113.237 E2.10758
G1 X53.654 Y112.752 E2.11143
G1 X53.898 Y112.300 E2.11528
G1 X54.213 Y111.895 E2.11914
G1 X54.591 Y111.547 E2.12299
G1 X55.021 Y111.267 E2.12684
G1 X55.491 Y111.061 E2.13070
G1 X55.988 Y110.935 E2.13455
G1 X56.475 Y110.894 E2.13821
G1 X58.025 Y110.894 E2.14985
G1 X58.512 Y110.935 E2.15351
G1 X59.009 Y111.061 E2.15737
G1 X59.479 Y111.267 E2.16122
G1 X59.909 Y111.547 E2.16507
G1 X60.259 Y111.870 E2.16865
G1 X60.287 Y111.895 E2.16892
G1 X60.104 Y112.064 F7800.000
G1 X60.394 Y112.436 F540.000 E2.17247
G1 X60.618 Y112.851 E2.17601
G1 X60.772 Y113.298 E2.17956
G1 X60.849 Y113.764 E2.18310
G1 X60.849 Y114.236 E2.18665
G1 X60.772 Y114.702 E2.19019
G1 X60.618 Y115.148 E2.19374
G1 X60.394 Y115.564 E2.19728
G1 X60.104 Y115.936 E2.20082
G1 X59.756 Y116.256 E2.20437
G1 X59.361 Y116.515 E2.20791
G1 X58.928 Y116.704 E2.21146
G1 X58.471 Y116.820 E2.21500
G1 X58.015 Y116.858 E2.21844
G1 X56.485 Y116.858 E2.22992
G1 X56.029 Y116.820 E2.23335
G1 X55.572 Y116.704 E2.23689
G1 X55.139 Y116.515 E2.24044
G1 X54.744 Y116.256 E2.24398
G1 X54.396 Y115.936 E2.24753
G1 X54.106 Y115.564 E2.25107
G1 X53.882 Y115.148 E2.25462
G1 X53.728 Y114.702 E2.25816
G1 X53.651 Y114.236 E2.26171
G1 X53.651 Y113.764 E2.26525
G1 X53.728 Y113.298 E2.26879
G1 X53.882 Y112.852 E2.27234
G1 X54.106 Y112.436 E2.27588
G1 X54.396 Y112.064 E2.27943
G1 X54.744 Y111.744 E2.28297
G1 X55.139 Y111.485 E2.28652
G1 X55.572 Y111.296 E2.29006
G1 X56.029 Y111.180 E2.29361
G1 X56.485 Y111.142 E2.29704
G1 X58.015 Y111.142 E2.30852
G1 X58.471 Y111.180 E2.31195
G1 X58.928 Y111.296 E2.31550
G1 X59.361 Y111.485 E2.31904
G1 X59.756 Y111.744 E2.32259
G1 X60.076 Y112.038 E2.32585
G1 X60.104 Y112.064 E2.32613
G1 X59.921 Y112.232 F7800.000
G1 X60.185 Y112.572 F540.000 E2.32937
G1 X60.391 Y112.951 E2.33260
G1 X60.531 Y113.359 E2.33584
G1 X60.601 Y113.784 E2.33908
G1 X60.601 Y114.216 E2.34231
G1 X60.530 Y114.641 E2.34555
G1 X60.391 Y115.049 E2.34878
G1 X60.185 Y115.428 E2.35202
G1 X59.921 Y115.768 E2.35526
G1 X59.603 Y116.060 E2.35849
G1 X59.242 Y116.296 E2.36173
G1 X58.848 Y116.469 E2.36496
G1 X58.430 Y116.575 E2.36820
G1 X58.005 Y116.610 E2.37140
G1 X56.495 Y116.610 E2.38273
G1 X56.070 Y116.575 E2.38593
G1 X55.652 Y116.469 E2.38917
G1 X55.258 Y116.296 E2.39240
G1 X54.897 Y116.060 E2.39564
G1 X54.579 Y115.768 E2.39888
G1 X54.315 Y115.428 E2.40211
G1 X54.109 Y115.049 E2.40535
G1 X53.969 Y114.641 E2.40858
G1 X53.899 Y114.216 E2.41182
G1 X53.899 Y113.784 E2.41506
G1 X53.969 Y113.359 E2.41829
G1 X54.109 Y112.951 E2.42153
G1 X54.315 Y112.572 E2.42477
G1 X54.579 Y112.232 E2.42800
G1 X54.897 Y111.940 E2.43124
G1 X55.258 Y111.704 E2.43447
G1 X55.652 Y111.531 E2.43771
G1 X56.070 Y111.425 E2.44095
G1 X56.495 Y111.390 E2.44415
G1 X58.005 Y111.390 E2.45547
G1 X58.430 Y111.425 E2.45868
G1 X58.848 Y111.531 E2.46191
G1 X59.242 Y111.704 E2.46515
G1 X59.603 Y111.940 E2.46839
G1 X59.893 Y112.207 E2.47134
G1 X59.921 Y112.232 E2.47162
G1 X60.164 Y112.185 F7800.000
G1 F3600.000 E0.47162
G92 E0
G1 X81.497 Y70.606 F7800.000
G1 F3600.000 E2.00000
G1 X81.497 Y89.606 F810.000 E2.14262
G1 X89.976 Y89.606 E2.20627
G1 X90.218 Y89.625 E2.20808
G1 X90.430 Y89.676 E2.20972
G1 X90.632 Y89.759 E2.21136
G1 X90.818 Y89.874 E2.21300
G1 X90.985 Y90.015 E2.21464
G1 X91.126 Y90.182 E2.21628
G1 X91.241 Y90.368 E2.21792
G1 X91.324 Y90.570 E2.21956
G1 X91.375 Y90.782 E2.22120
G1 X91.394 Y91.024 E2.22302
G1 X91.394 Y98.976 E2.28272
G1 X91.375 Y99.218 E2.28453
G1 X91.324 Y99.430 E2.28617
G1 X91.241 Y99.632 E2.28781
G1 X91.126 Y99.818 E2.28945
G1 X90.985 Y99.985 E2.29109
G1 X90.818 Y100.126 E2.29273
G1 X90.632 Y100.241 E2.29437
G1 X90.430 Y100.324 E2.29601
G1 X90.218 Y100.375 E2.29765
G1 X89.976 Y100.394 E2.29947
G1 X81.497 Y100.394 E2.36312
G1 X81.497 Y119.394 E2.50574
G1 X54.024 Y119.394 E2.71195
G1 X53.782 Y119.375 E2.71377
G1 X53.570 Y119.324 E2.71541
G1 X53.368 Y119.241 E2.71705
G1 X53.182 Y119.126 E2.71869
G1 X53.015 Y118.985 E2.72033
G1 X52.874 Y118.818 E2.72197
G1 X52.759 Y118.632 E2.72361
G1 X52.676 Y118.430 E2.72525
G1 X52.625 Y118.218 E2.72689
G1 X52.606 Y117.976 E2.72871
G1 X52.606 Y110.024 E2.78840
G1 X52.625 Y109.782 E2.79022
G1 X52.676 Y109.570 E2.79186
G1 X52.759 Y109.368 E2.79350
G1 X52.874 Y109.182 E2.79514
G1 X53.015 Y109.015 E2.79678
G1 X53.182 Y108.874 E2.79842
G1 X53.368 Y108.759 E2.80006
G1 X53.570 Y108.676 E2.80170
G1 X53.782 Y108.625 E2.80334
G1 X54.024 Y108.606 E2.80516
G1 X62.606 Y108.606 E2.86958
G1 X62.606 Y81.394 E3.07384
G1 X54.024 Y81.394 E3.13825
G1 X53.782 Y81.375 E3.14007
G1 X53.570 Y81.324 E3.14171
G1 X53.368 Y81.241 E3.14335
G1 X53.182 Y81.126 E3.14499
G1 X53.015 Y80.985 E3.14663
G1 X52.874 Y80.818 E3.14827
G1 X52.759 Y80.632 E3.14991
G1 X52.676 Y80.430 E3.15155
G1 X52.625 Y80.218 E3.15319
